actions/symbolic/media-playlist-repeat-song-rtl-symbolic.svg

<?xml version="1.0" encoding="UTF-8" standalone="no"?>
<svg
   xmlns:dc="http://purl.org/dc/elements/1.1/"
   xmlns:cc="http://creativecommons.org/ns#"
   xmlns:rdf="http://www.w3.org/1999/02/22-rdf-syntax-ns#"
   xmlns:svg="http://www.w3.org/2000/svg"
   xmlns="http://www.w3.org/2000/svg"
   xmlns:sodipodi="http://sodipodi.sourceforge.net/DTD/sodipodi-0.dtd"
   xmlns:inkscape="http://www.inkscape.org/namespaces/inkscape"
   viewBox="0 0 16 16"
   id="svg3197"
   version="1.1"
   inkscape:version="0.91 r13725"
   sodipodi:docname="media-playlist-repeat-song-rtl-symbolic.svg">
  <metadata
     id="metadata3205">
    <rdf:RDF>
      <cc:Work
         rdf:about="">
        <dc:format>image/svg+xml</dc:format>
        <dc:type
           rdf:resource="http://purl.org/dc/dcmitype/StillImage" />
        <dc:title></dc:title>
      </cc:Work>
    </rdf:RDF>
  </metadata>
  <sodipodi:namedview
     pagecolor="#ffffff"
     bordercolor="#666666"
     borderopacity="1"
     objecttolerance="10"
     gridtolerance="10"
     guidetolerance="10"
     inkscape:pageopacity="0"
     inkscape:pageshadow="2"
     inkscape:window-width="640"
     inkscape:window-height="480"
     id="namedview3203"
     showgrid="false"
     inkscape:zoom="39.8125"
     inkscape:cx="-0.38932491"
     inkscape:cy="8"
     inkscape:current-layer="svg3197" />
  <defs
     id="defs3051">
    <style
       type="text/css"
       id="current-color-scheme">
      .ColorScheme-Text {
        color:#bebebe;
      }
      </style>
  </defs>
  <path
     style="color:#bebebe;fill:currentColor;fill-opacity:1;stroke:none"
     d="m 8,6.2 -1.2,0.6 0,0.6 0.9,0 0,2.4 0.9,0 0,-3.6 -0.6,0 z"
     id="path4136" />
  <path
     id="path3201"
     style="color:#bebebe;fill:currentColor;fill-opacity:1;stroke:none"
     d="m 5,8.6 0,2.4 6,0 0,-1.8 2.4,2.4 -2.4,2.4 0,-1.8 -7.2000001,0 0,-3.6 L 5,8.6 Z M 5,2 l 0,1.8000001 7.2,0 L 12.2,7.4 11,7.4 11,5 5,5 5,6.8 2.6,4.4 5,2 Z"
     inkscape:connector-curvature="0" />
</svg>

<svg xmlns="http://www.w3.org/2000/svg" viewBox="0 0 16 16">
  <path fill="#bebebe" d="M5 8.6V11h6V9.2l2.4 2.4L11 14v-1.8H3.8V8.6zM5 2v1.8h7.2v3.6H11V5H5v1.8L2.6 4.4zm3 4.2l-1.2.6v.6h.9v2.4h.9V6.2z"/>
</svg>
